svgs/regular/dharmachakra.svg

<svg xmlns="http://www.w3.org/2000/svg" viewBox="0 0 512 512"><!-- Font Awesome Pro 6.0.0-alpha2 by @fontawesome - https://fontawesome.com License - https://fontawesome.com/license (Commercial License) --><path d="M499.25 232L478.75 232.625C474.125 188.25 456.625 147.875 430 115L445 101C450.125 96.25 450.25 88.25 445.375 83.25L428.75 66.625C423.75 61.75 415.75 61.875 411 67L397 82C364.125 55.375 323.75 37.875 279.375 33.25L280 12.75C280.25 5.75 274.75 0 267.75 0H244.25C237.25 0 231.75 5.75 232 12.75L232.625 33.25C188.25 37.875 147.875 55.375 115 82L101 67C96.25 61.875 88.25 61.75 83.25 66.625L66.625 83.25C61.75 88.25 61.875 96.25 67 101L82 115C55.375 147.875 37.875 188.25 33.25 232.625L12.75 232C5.75 231.75 0 237.25 0 244.25V267.75C0 274.75 5.75 280.25 12.75 280L33.25 279.375C37.875 323.75 55.375 364.125 82 397L67 411C61.875 415.75 61.75 423.75 66.625 428.75L83.25 445.375C88.25 450.25 96.25 450.125 101 445L115 430C147.875 456.625 188.25 474.125 232.625 478.75L232 499.25C231.75 506.25 237.25 512 244.25 512H267.75C274.75 512 280.25 506.25 280 499.25L279.375 478.75C323.75 474.125 364.125 456.625 397 430L411 445C415.75 450.125 423.75 450.25 428.75 445.375L445.375 428.75C450.25 423.75 450.125 415.75 445 411L430 397C456.625 364.125 474.125 323.75 478.75 279.375L499.25 280C506.25 280.25 512 274.75 512 267.75V244.25C512 237.25 506.25 231.75 499.25 232ZM430.5 234.125L350 236.625C347.5 224.5 342.625 213.375 336.125 203.375L394.75 148.125C413.75 172.5 426.5 202 430.5 234.125ZM256 304C229.5 304 208 282.5 208 256S229.5 208 256 208S304 229.5 304 256S282.5 304 256 304ZM363.875 117.25L308.625 175.875C298.75 169.375 287.5 164.5 275.5 162L277.875 81.5C310 85.5 339.5 98.25 363.875 117.25ZM234.125 81.5L236.625 162C224.5 164.5 213.375 169.375 203.375 175.875L148.125 117.25C172.5 98.25 202 85.5 234.125 81.5ZM117.25 148.125L175.875 203.375C169.375 213.25 164.5 224.5 162 236.5L81.5 234.125C85.5 202 98.25 172.5 117.25 148.125ZM81.5 277.875L162 275.375C164.5 287.5 169.375 298.625 175.875 308.625L117.25 363.875C98.25 339.5 85.5 310 81.5 277.875ZM148.125 394.75L203.375 336.125C213.25 342.625 224.5 347.5 236.5 350L234.125 430.5C202 426.5 172.5 413.75 148.125 394.75ZM277.875 430.5L275.375 350C287.5 347.5 298.625 342.625 308.625 336.125L363.875 394.75C339.5 413.75 310 426.5 277.875 430.5ZM394.75 363.875L336.125 308.625C342.625 298.75 347.5 287.5 350 275.5L430.5 277.875C426.5 310 413.75 339.5 394.75 363.875Z"/></svg>

<svg xmlns="http://www.w3.org/2000/svg" viewBox="0 0 512 512"><!--! Font Awesome Pro 6.0.0-alpha3 by @fontawesome - https://fontawesome.com License - https://fontawesome.com/license (Commercial License) --><path d="M499.3 232l-20.5 .625C474.1 188.2 456.6 147.9 429.1 115l15-14c5.125-4.75 5.25-12.75 .375-17.75l-16.62-16.62c-5-4.875-13-4.75-17.75 .375l-14 15C364.1 55.38 323.8 37.88 279.4 33.25L280 12.75C280.2 5.75 274.8 0 267.8 0h-23.5C237.3 0 231.8 5.75 232 12.75l.625 20.5C188.2 37.88 147.9 55.38 115 82L101 67C96.25 61.88 88.25 61.75 83.25 66.62L66.63 83.25C61.75 88.25 61.88 96.25 67 101l14.1 14c-26.62 32.88-44.12 73.25-48.75 117.6L12.75 232C5.75 231.8 0 237.2 0 244.2v23.5C0 274.8 5.75 280.2 12.75 280l20.5-.625c4.625 44.38 22.13 84.75 48.75 117.6l-14.1 14c-5.125 4.75-5.25 12.75-.375 17.75l16.62 16.62c5 4.875 13 4.75 17.75-.375l14-14.1c32.88 26.62 73.25 44.12 117.6 48.75L232 499.2C231.8 506.2 237.3 512 244.3 512h23.5c7 0 12.5-5.75 12.25-12.75l-.625-20.5c44.38-4.625 84.75-22.13 117.6-48.75l14 14.1c4.75 5.125 12.75 5.25 17.75 .375l16.62-16.62c4.875-5 4.75-13-.375-17.75l-15-14c26.63-32.88 44.13-73.25 48.75-117.6L499.3 280C506.3 280.2 512 274.8 512 267.8V244.2C512 237.2 506.3 231.8 499.3 232zM430.5 234.1l-80.5 2.5c-2.5-12.12-7.375-23.25-13.87-33.25l58.63-55.25C413.8 172.5 426.5 202 430.5 234.1zM256 304C229.5 304 208 282.5 208 256S229.5 208 256 208s48 21.5 48 48S282.5 304 256 304zM363.9 117.2l-55.25 58.63c-9.875-6.5-21.12-11.38-33.13-13.87l2.375-80.5C309.1 85.5 339.5 98.25 363.9 117.2zM234.1 81.5l2.5 80.5C224.5 164.5 213.4 169.4 203.4 175.9L148.1 117.2C172.5 98.25 201.1 85.5 234.1 81.5zM117.2 148.1l58.63 55.25C169.4 213.2 164.5 224.5 161.1 236.5L81.5 234.1C85.5 202 98.25 172.5 117.2 148.1zM81.5 277.9l80.5-2.5C164.5 287.5 169.4 298.6 175.9 308.6L117.2 363.9C98.25 339.5 85.5 310 81.5 277.9zM148.1 394.8l55.25-58.63c9.875 6.5 21.12 11.38 33.13 13.88L234.1 430.5C201.1 426.5 172.5 413.8 148.1 394.8zM277.9 430.5l-2.5-80.5c12.12-2.5 23.25-7.375 33.25-13.88l55.25 58.63C339.5 413.8 309.1 426.5 277.9 430.5zM394.8 363.9l-58.63-55.25c6.5-9.875 11.38-21.12 13.87-33.13l80.5 2.375C426.5 310 413.8 339.5 394.8 363.9z"/></svg>
